X:1
T: Nell Flaherty's Drake
C:
R:Jig
Q:180
K:G
M:6/8
L:1/16
D2|G2A2B2 A2G2E2|D2E2G2 G2B2d2|e2f2g2 d2B2G2|B2A2A2 A4D2|G2A2B2 A2G2E2|D2E2G2 G2B2d2|e2f2g2 d2B2A2|B2G2G2 G4D2|
G2A2B2 A2G2E2|D2E2G2 G2B2d2|e2f2g2 d2B2G2|B2A2A2 A4D2|G2A2B2 A2G2E2|D2E2G2 G2B2d2|e2f2g2 d2B2A2|B2G2G2 G4B2|
d2e2f2 g2f2g2|a2f2d2 e2d2B2|g2f2g2 e2d2B2|B2A2A2 A4D2|G2A2B2 A2G2E2|D2E2G2 G2B2d2|e2f2g2 d2B2A2|B2G2G2 G4B2|
d2e2f2 g2f2g2|a2f2d2 e2d2B2|g2f2g2 e2d2B2|B2A2A2 A4D2|G2A2B2 A2G2E2|D2E2G2 G2B2d2|e2f2g2 d2B2A2|B2G2G2 G4||
